!!!OTL-incipit: TRAU KLEINES MADELEIN TRAU NIE ZU SEHR
!!!ARE: Europa, Mitteleuropa, Deutschland, Kuhlaendchen
!!!SCT: Z0294
!!!YEM: Copyright 1995, estate of Helmut Schaffrath.
**kern	**text
*ICvox	*
*M4/4	*
*met(c|)	*
*k[]	*
*C:	*
=1	=1
!LO:TX:a:t=Aus dem Kuhländchen.	!
{4cc	Trau
8cc	fei-
8b	-nes
8.a	Made-
16a	.
4a	-lein,
=2	=2
4dd	trau
8dd	nie
8b	ʒu
4g	ſehr,
8r}	.
{8g	i
=3	=3
4cc	ho
8cc	dich
8dd	ge-
4ee	-lie-
8ee	-vet
8cc	und
=4	=4
8eeL	jeʒ-
8ddJ	.
8dd	-ʒund
8b	nie
4cc	mehr,
8r}	.
{8g	i
=5	=5
4cc	ho
8cc	dich
8b	ge-
4a	-lie-
4a	-vet_aus
=6	=6
8dd	ganʒem
8dd	.
8ddL	main
8bJ	.
4g	Her-
8g}	-ʒen,
{8g	jetʒt
=7	=7
8cc	biſt
8cc	du
8cc	a-
8dd	-ber
4ee	falſch
8eeL	in
8ccJ	.
=8	=8
8eeL	dein
8dd	.
8dd	.
8bJ	.
4cc	Her-
4cc}	-ʒen.
==	==
!!!AGN: Lyrisches Lied, Romanze, Abschieds - Lied
!!!ONB: ESAC (Essen Associative Code) Database: ZUCCAL
!!!AMT: simple quadruple
!!!AIN: vox
!!!EED: Helmut Schaffrath
!!!EEV: 1.0
!!!GTL: IV. Lyrische Lieder.
!!!URL-scan: https://www.digitale-sammlungen.de/de/view/bsb11160571?page=530
!!!ENC: Anna Maria Matuszewska
!!!EEV: 2025/01/31
*-	*-
